!!!COM: Corelli, Arcangelo
!!!OPR: Sonata da camera
!!!OPS: 4
!!!ONM: 3
!!!OMV: 3
!!!OTL: Sarabanda
!!!OMD: Largo
**kern	**harm	**fb	**kern	**kern
*part3	*above	*part3	*part2	*part1
*staff3	*	*	*staff2	*staff1
*I"Violone & Cembalo	*	*	*I"Violino II	*I"Violino I
*clefF4	*	*	*clefG2	*clefG2
*k[f#c#]	*	*	*k[f#c#]	*k[f#c#]
*A:	*	*	*A:	*A:
*M3/2	*	*	*M3/2	*M3/2
*MM108	*	*	*MM108	*MM108
=	=	=	=	=
2A	.	.	2cc#	2a
=1	=1	=1	=1	=1
4G#X	I	6	2.b	2.ee
4F#	.	.	.	.
4G#	.	.	.	.
4E	.	.	4cc#	4ee
4A	.	.	(4a	(4cc#
4AA	.	.	4b)	4dd)
=2	=2	=2	=2	=2
4E	V	#	1g#X	2b
4D#X	.	.	.	.
4E	.	.	.	2e
4F#	.	.	.	.
4G#X	.	6	2ee	(4b
4E	.	.	.	4cc#)
=3	=3	=3	=3	=3
*E:	*	*	*E:	*E:
4F#	V6/V	7	2cc#	2.a
4G#X	.	.	.	.
4F#	.	#6\	(4dd#X	.
4E	.	.	4ee)	4cc#
4D#X	viio6/V	6	2ff#	(4b
4BB	.	.	.	4a)
=4	=4	=4	=4	=4
4E	V(9)	9 #	2ff#	2.g#X
4D#X	.	.	.	.
4E	.	8	2ee	.
4F#	.	.	.	4b
4G#X	V	6	[2b	(4ee
4E	.	.	.	4dd)
=5	=5	=5	=5	=5
4A	I(9)	9	2b]	2.cc#
4G#X	.	.	.	.
4A	.	8	2e	.
4B	.	.	.	4cc#
4c#	I	6	2a	4ff#
4A	.	.	.	4ee
=6	=6	=6	=6	=6
4B	I6	7 #	2.a	2.dd#X
4c#	.	.	.	.
4B	.	7 #	.	.
4A	.	.	4f#	4b
4G#X	.	6	2g#X	[2ee
4E	.	.	.	.
=7	=7	=7	=7	=7
4A	V	6 5	2ee	4ee]
4F#	.	.	.	4ff#
2B	.	4	2.ee	2.ff#
2BB	V(4)	#	.	.
.	.	.	4dd#X	4ee
=8	=8	=8	=8	=8
1E	{	.	1ee	1ee
=:|!|:	=:|!|:	=:|!|:	=:|!|:	=:|!|:
*A:	*	*	*A:	*A:
2E	.	#	2g#X	(4b
.	.	.	.	4cc#)
=9	=9	=9	=9	=9
4F#	V6	6	1a	2.dd
4E	.	.	.	.
4F#	.	.	.	.
4A	.	.	.	4dd
4G#X	.	6	2b	(4ee
4B	.	.	.	4b)
=10	=10	=10	=10	=10
4A	IV	.	2.e	2.cc#
4G#X	.	.	.	.
4A	.	.	.	.
4c#	.	.	4e	4cc#
4d	.	6	2a	[2ff#
4A	.	.	.	.
=11	=11	=11	=11	=11
*f#:	*	*	*f#:	*f#:
4B	V/vi	#6\ 5	2ff#	4ff#]
4G#X	.	.	.	4gg#X
4c#	.	4	2.ff#	2.gg#
4B	.	.	.	.
4c#	V(4)/vi	#	.	.
4C#	.	.	4ee#X	4ff#
=12	=12	=12	=12	=12
4F#	I{	.	1ff#	1ff#
4E#X	.	.	.	.
4F#	.	.	.	.
4G#X	.	.	.	.
4A	.	.	(4eeni	(4cc#
4F#	.	.	4a)	4dd)
=13	=13	=13	=13	=13
*A:	*	*	*A:	*A:
4G#X	I	6	2.b	2.ee
4F#	.	.	.	.
4G#	.	.	.	.
4Eni	.	.	4cc#	4ee
4A	.	.	(4b	(4dd
4AA	.	.	4a)	4cc#)
=14	=14	=14	=14	=14
4E	I6	#	2.g#X	2.b
4F#	.	.	.	.
4E	.	.	.	.
4D	.	.	4b	4ee
4C#	.	6	2cc#	(4aa
4AA	.	.	.	4cc#)
=15	=15	=15	=15	=15
4D	V	6 5	2a	(4ff#
4BB	.	.	.	4b)
2E	.	5 4	2.a	2.b
2EE	V(4)	#	.	.
.	.	.	4g#X	4a
=16	=16	=16	=16	=16
1AA	I|PAC}	.	1a	1a
=:|!	=:|!	=:|!	=:|!	=:|!
*-	*-	*-	*-	*-
!!!system-decoration: [{s1,s2},s3]
!!!YEM: CC BY-NC-SA 4.0; CCARH; DCML
!!!RDF**kern: i = editorial accidental